X: 083
T: the Tempest.  Tune for a Retreat.
%R: waltz, minuet
Z: 2017 John Chambers <jc:trillian.mit.edu>
B: John Treat - "Gamut for the Fifes", 1779, p.7 #3
F: https://archive.org/details/GamutFortheFifes
N: The first note (c) in bar 5 is barred with the other 4; fixed to match similar bars' rhythms.
N: The last two notes (cA) are faint, and don't really fit at the beginning.
M: 3/4
L: 1/8
K: G
% - - - - - - - - - - - - - - - - - - - - - - - - -
Bd |\
{d2}c2 BAGF | G2 A2 B>d | c2 B2 A>F | G4 Bd |\
c2BAGF | G2 A2 Bd | c2 B2 AF | G2 zBcB |
e2 edcB | A2 A2 BA | G2 FE F/G/A | D4 AB |\
c2BA dF | GA/B/ A2 gf/e/ | d2 cB cA |]
% - - - - - - - - - - - - - - - - - - - - - - - - -
